src/main/resources/icons/AllIcons/actions/synchronizeScrolling.svg

<!-- Copyright 2000-2021 JetBrains s.r.o. Use of this source code is governed by the Apache 2.0 license that can be found in the LICENSE file. -->
<svg xmlns="http://www.w3.org/2000/svg" width="16" height="16" viewBox="0 0 16 16">
  <g fill="none" fill-rule="evenodd">
    <path fill="#6E6E6E" d="M13,4.99999981 L15,4.99999981 L12,7.99999981 L9,4.99999981 L11,4.99999981 L11,0.999999809 L13,0.999999809 L13,4.99999981 Z" transform="matrix(1 0 0 -1 0 9)"/>
    <path fill="#6E6E6E" d="M13 12L15 12 12 15 9 12 11 12 11 8 13 8 13 12zM7 4L2 4 2 12 7 12 7 13 1 13 1 3 7 3 7 4z"/>
    <path fill="#6E6E6E" d="M4,3 L8,3 L8,13 L4,13 L4,3 Z M5,4 L5,12 L7,12 L7,4 L5,4 Z"/>
  </g>
</svg>

<svg xmlns="http://www.w3.org/2000/svg" width="16" height="16" viewBox="0 0 16 16"><rect id="frame" width="16" height="16" fill="none"/><g fill="#6E6E6E" fill-rule="evenodd"><path d="M13 4h2l-3-3-3 3h2v4h2V4z"/><path d="M13 12h2l-3 3-3-3h2V8h2v4zM7 4H2v8h5v1H1V3h6v1z"/><path d="M4 3h4v10H4V3zm1 1v8h2V4H5z"/></g></svg>
